X: 41865
T: Visiting Kittens, The
R: jig
M: 6/8
K: Gmajor
|:DGG BGB|dBA G2E|DGG BdB|d2B cAF|
DGG BGB|dBA G2A|B2d B2d|BGF G3:|
|:Bdd cee|def g3|Bdd cee|dBG B2A|
Bdd cee|def g3|B2d B2d|AGF G3:|

